public/img/logos/aetna-vector-logo.svg

<svg width="188" height="65" viewBox="0 0 188 65" fill="none" xmlns="http://www.w3.org/2000/svg">
<path d="M23.9026 28.1263C23.7799 26.2238 23.6571 24.345 23.5773 22.4675C23.5773 22.3022 23.8324 22.0132 24.0164 21.9692C25.6379 21.5816 27.2545 21.1369 28.9017 20.8991C31.7933 20.4676 34.7319 20.4184 37.6372 20.7528C39.1446 20.9312 40.6128 21.2546 41.9792 21.9276C44.23 23.037 45.4775 24.8932 45.9044 27.225C46.1817 28.7554 46.2051 30.3309 46.2885 31.8886C46.3131 32.3559 46.3916 32.5462 46.9288 32.545C48.278 32.545 49.6272 32.5842 50.9764 32.6555C51.5149 32.6841 51.7025 32.5545 51.7749 32.0015C52.0569 29.8671 52.6333 27.81 53.7996 25.9479C55.0556 23.8946 57.0481 22.3622 59.3962 21.6434C63.8448 20.2415 68.3573 20.1511 72.8293 21.5007C75.4812 22.301 77.4989 23.9229 78.2129 26.6483C78.9808 29.583 78.6069 32.3369 76.2643 34.5617C74.817 35.9374 72.9613 36.5653 71.0233 36.9779C68.0796 37.6045 65.0954 37.5355 62.1113 37.4702C61.85 37.4642 61.5875 37.4702 61.3336 37.4702C60.9878 39.5475 62.0845 42.1825 64.4285 43.3478C66.3382 44.2991 68.378 44.4275 70.4594 44.2456C72.6441 44.0447 74.7633 43.4127 76.6865 42.3882C76.746 42.5577 76.7899 42.732 76.8178 42.909C76.9123 44.5737 76.986 46.2313 77.0903 47.8913C77.1173 48.3146 76.9898 48.5762 76.5531 48.6678C74.744 49.0495 72.9508 49.5738 71.1196 49.7807C67.987 50.1375 64.8384 50.0756 61.7242 49.4716C58.8001 48.9044 56.2047 47.7748 54.3353 45.4049C52.9492 43.6427 52.2856 41.5939 51.8905 39.4464C51.7899 38.9018 51.7519 38.3453 51.6255 37.8079C51.5863 37.6378 51.3581 37.3893 51.206 37.3833C49.6765 37.3144 48.1396 37.2894 46.6114 37.2466C46.2557 37.2371 46.1808 37.4131 46.1649 37.7222C45.9897 41.2086 45.98 44.6927 46.3028 48.1731C46.3359 48.5298 46.3837 48.8759 46.4255 49.273C46.2366 49.3015 46.0857 49.3372 45.9348 49.3455C41.9363 49.5417 37.939 49.7641 33.9405 49.9211C31.3831 50.0209 28.8319 49.9472 26.3653 49.1458C23.2903 48.1457 21.5092 46.0732 21.1227 42.972C20.9515 41.718 20.9613 40.4469 21.152 39.1955C21.5615 36.7781 23.1977 35.2168 25.4165 34.1835C27.336 33.2905 29.3831 32.8351 31.4878 32.6651C33.2356 32.5247 34.9945 32.4867 36.7497 32.4368C37.1508 32.4249 37.3127 32.3262 37.2722 31.9326C37.1875 31.1264 37.1924 30.3047 37.0268 29.5152C36.6084 27.4699 35.2996 26.445 33.1605 26.269C30.0524 26.0109 27.1676 26.7327 24.3883 28.0003C24.2963 28.0431 24.2044 28.0859 24.1087 28.1192C24.0405 28.129 23.9714 28.1313 23.9026 28.1263ZM63.2579 32.9017C64.6665 32.9318 66.0702 32.7308 67.4097 32.3071C69.4163 31.6817 70.3852 29.3416 69.4848 27.4807C69.198 26.9183 68.7432 26.4526 68.1797 26.1441C65.9841 24.999 63.0466 26.005 61.9833 28.1858C61.3406 29.5033 61.2266 30.9207 61.1457 32.3476C61.1286 32.6401 61.2267 32.7863 61.5481 32.7982C62.1184 32.8244 62.6875 32.8684 63.2579 32.9017ZM37.1072 44.2836C37.1071 42.2384 37.107 40.2835 37.1069 38.3287C37.1069 38.0718 37.1069 37.8138 37.1167 37.557C37.1252 37.2109 36.9155 37.1063 36.6064 37.1277C35.4498 37.2086 34.2686 37.18 33.1414 37.4024C30.378 37.9494 29.2607 39.8923 30.0753 42.4905C30.377 43.4584 31.048 44.028 32.0096 44.2896C33.6949 44.7438 35.3888 44.5999 37.1072 44.2836Z" fill="#7D3F98"/>
<path d="M113.244 49.3218L103.671 49.3218C104.007 40.0386 104.083 30.7851 103.655 21.5031C104.543 21.4544 105.397 21.4235 106.247 21.3592C109.117 21.1393 111.982 20.8503 114.854 20.6957C117.953 20.5293 121.063 20.4199 124.095 21.3034C127.898 22.4092 129.615 24.7089 130.031 28.2821C130.268 30.2976 130.154 32.3535 130.189 34.3904C130.242 38.0159 130.271 41.6438 130.337 45.2658C130.358 46.374 130.471 47.4787 130.536 48.5857C130.549 48.8164 130.536 49.0495 130.536 49.3158L120.995 49.3158C120.97 49.1539 120.955 48.9907 120.95 48.8271C121.05 44.7485 121.195 40.67 121.241 36.5914C121.266 34.4356 121.211 32.2715 121.05 30.1216C120.844 27.3867 119.646 26.2844 116.834 26.2274C115.708 26.2048 114.576 26.4937 113.448 26.6447C113.098 26.6923 113.004 26.9039 113.004 27.2393C113.02 33.3203 113.015 39.4012 113.043 45.4822C113.043 46.569 113.174 47.6547 113.242 48.7415C113.254 48.9056 113.244 49.0863 113.244 49.3218Z" fill="#7D3F98"/>
<path d="M137.005 28.225C136.913 26.5413 136.815 24.9479 136.744 23.3498C136.686 22.0667 136.679 21.9716 138.007 21.6922C140.034 21.2677 142.084 20.8729 144.146 20.6779C146.623 20.4401 149.123 20.4555 151.596 20.8705C153.967 21.2689 156.148 22.0299 157.632 24.0204C158.611 25.3314 159.169 26.8932 159.238 28.5104C159.36 30.998 159.368 33.4962 159.304 35.9874C159.2 40.0457 158.989 44.1029 159.398 48.1576C159.435 48.5263 159.473 48.8949 159.521 49.3562C158.907 49.3562 158.359 49.3336 157.817 49.3562C155.126 49.493 152.437 49.6606 149.745 49.7855C146.546 49.9329 143.346 50.166 140.178 49.3657C136.686 48.4834 134.577 46.1778 134.159 42.695C133.947 40.9399 133.96 39.2181 134.779 37.5819C135.73 35.6865 137.376 34.5676 139.328 33.8244C141.851 32.8636 144.502 32.5604 147.188 32.4819C148.088 32.4558 148.987 32.4403 149.886 32.4356C150.162 32.4356 150.399 32.413 150.361 32.0693C150.238 30.992 150.238 29.879 149.943 28.8481C149.475 27.2191 148.121 26.4105 146.23 26.2607C143.211 26.0228 140.398 26.7042 137.683 27.9099C137.497 28.0015 137.313 28.0859 137.005 28.225ZM150.175 44.2777C150.203 44.2251 150.224 44.1696 150.238 44.1124C150.238 41.9375 150.225 39.7615 150.228 37.5867C150.228 37.2074 150.016 37.1027 149.683 37.1253C148.568 37.2026 147.435 37.1919 146.342 37.3857C143.927 37.8162 142.838 39.1539 142.956 41.3596C143.05 43.1171 143.91 44.1338 145.611 44.418C147.127 44.671 148.679 44.6233 150.175 44.2777Z" fill="#7D3F98"/>
<path d="M99.5102 43.2824C99.6329 45.1445 99.7556 46.9602 99.8869 48.776C99.9066 49.0661 99.9103 49.3194 99.5067 49.3907C95.9633 50.0138 92.4173 50.3646 88.9143 49.2135C86.4955 48.4192 84.9966 46.7343 84.4126 44.3549C84.1464 43.2386 84.0135 42.0963 84.0163 40.9506C84.0161 36.6699 84.0736 32.3892 84.1384 28.1085C84.1469 27.5377 83.9875 27.3356 83.3889 27.3665C82.5598 27.4105 81.727 27.3784 80.8254 27.3784C80.8254 25.8801 80.8094 24.458 80.851 23.0382C80.851 22.9051 81.2091 22.7172 81.4275 22.6672C83.1127 22.282 84.6606 21.6637 85.7988 20.3331C86.9369 19.0025 87.4349 17.4281 87.7794 15.7836C87.9021 15.2045 87.9916 14.6195 88.1019 14L93.4166 14C93.3063 16.4662 93.1972 18.9228 93.0845 21.4603L93.8683 21.4603C95.3818 21.4603 96.8942 21.4698 98.4065 21.4603C98.7953 21.4603 98.9535 21.5626 98.9499 21.9597C98.9344 23.6046 98.9345 25.2499 98.9501 26.8956C98.9501 27.3011 98.7735 27.3927 98.3957 27.3903C96.8221 27.376 95.2484 27.401 93.6747 27.376C93.1682 27.3689 93.0112 27.5282 93.0137 28.0217C93.0347 31.7078 92.9919 35.394 93.0522 39.0802C93.0682 40.0933 93.2878 41.1218 93.5564 42.1076C93.7773 42.9185 94.447 43.4001 95.3031 43.6201C96.5616 43.9423 97.5624 43.8769 99.5102 43.2824Z" fill="#7D3F98"/>
<path d="M164.166 22.3093C164.166 22.8765 164.183 23.4461 164.156 24.0133C164.148 24.1691 164.011 24.3201 163.934 24.4735C163.869 24.3308 163.752 24.1881 163.749 24.043C163.73 23.3117 163.741 22.5792 163.748 21.848C163.748 21.7516 163.766 21.6541 163.775 21.5364C164.232 21.3533 164.498 21.4627 164.644 21.9324C164.835 22.5519 165.073 23.1571 165.29 23.7695L165.467 23.7862C165.701 23.1524 165.93 22.5174 166.17 21.8836C166.346 21.4175 166.352 21.4199 166.999 21.5436C166.999 22.4163 167.006 23.3022 166.989 24.1881C166.989 24.2856 166.847 24.3807 166.77 24.477C166.705 24.3748 166.587 24.2749 166.583 24.1714C166.566 23.5495 166.574 22.9253 166.574 22.3022L166.411 22.2713C166.175 22.8884 165.948 23.5091 165.693 24.1191C165.635 24.2582 165.478 24.3569 165.366 24.4758C165.267 24.3653 165.128 24.2701 165.074 24.1417C164.821 23.5269 164.59 22.9027 164.351 22.2832L164.166 22.3093Z" fill="#7D3F98"/>
<path d="M162.932 22.2891C162.782 22.2307 162.638 22.1611 162.5 22.081C162.389 22.0025 162.318 21.8301 162.203 21.804C161.835 21.7195 161.363 21.5661 161.181 22.0239C160.984 22.5127 161.451 22.5899 161.806 22.6886C162.044 22.7466 162.278 22.8168 162.508 22.8991C163.122 23.1453 163.309 23.8849 162.775 24.2273C162.413 24.4651 161.863 24.4949 161.403 24.4758C160.943 24.4568 160.627 24.1584 160.545 23.5115C160.774 23.6411 160.913 23.7136 161.045 23.7957C161.257 23.9277 161.45 24.1358 161.679 24.1845C162.039 24.2606 162.472 24.2582 162.587 23.8076C162.71 23.3129 162.277 23.238 161.923 23.1357C161.664 23.0798 161.41 23.0075 161.16 22.9193C160.547 22.6542 160.49 21.9681 161.026 21.5828C161.736 21.081 162.717 21.3866 162.932 22.2891Z" fill="#7D3F98"/>
</svg>

<svg width="188" height="65" fill="none" xmlns="http://www.w3.org/2000/svg"><path d="M23.903 28.126c-.123-1.902-.246-3.781-.326-5.659 0-.165.255-.454.44-.498 1.62-.387 3.238-.832 4.885-1.07 2.891-.431 5.83-.48 8.735-.146 1.508.178 2.976.502 4.342 1.175 2.251 1.109 3.498 2.965 3.925 5.297.278 1.53.301 3.106.384 4.664.025.467.104.657.64.656 1.35 0 2.7.04 4.048.11.539.03.727-.1.799-.654.282-2.134.858-4.191 2.025-6.053 1.256-2.053 3.248-3.586 5.596-4.305 4.449-1.402 8.961-1.492 13.433-.142 2.652.8 4.67 2.422 5.384 5.147.768 2.935.394 5.689-1.949 7.914-1.447 1.375-3.303 2.003-5.24 2.416-2.944.627-5.929.557-8.913.492-.261-.006-.523 0-.777 0-.346 2.078.75 4.712 3.094 5.878 1.91.951 3.95 1.08 6.031.898a16.444 16.444 0 006.227-1.858c.06.17.104.344.132.521.094 1.665.168 3.322.272 4.982.027.424-.1.685-.537.777-1.809.382-3.602.906-5.433 1.113-3.133.357-6.282.295-9.396-.31-2.924-.567-5.52-1.696-7.389-4.066-1.386-1.762-2.05-3.811-2.444-5.959-.101-.544-.14-1.1-.265-1.638-.04-.17-.268-.419-.42-.425-1.53-.069-3.066-.094-4.595-.136-.355-.01-.43.166-.446.475-.175 3.487-.185 6.97.138 10.451.033.357.08.703.123 1.1-.19.028-.34.064-.491.072-3.999.197-7.996.42-11.995.576-2.557.1-5.108.026-7.575-.775-3.075-1-4.856-3.073-5.242-6.174a13.204 13.204 0 01.029-3.776c.41-2.418 2.046-3.98 4.264-5.012 1.92-.893 3.967-1.349 6.072-1.519 1.748-.14 3.507-.178 5.262-.228.4-.012.563-.11.522-.504-.084-.807-.08-1.628-.245-2.418-.419-2.045-1.727-3.07-3.867-3.246-3.108-.258-5.992.464-8.772 1.731-.092.043-.184.086-.28.12a.96.96 0 01-.205.006zm39.355 4.776a12.86 12.86 0 004.152-.595c2.006-.625 2.975-2.965 2.075-4.826a3.17 3.17 0 00-1.305-1.337c-2.196-1.145-5.133-.139-6.197 2.042-.642 1.317-.756 2.735-.837 4.162-.017.292.08.438.402.45.57.026 1.14.07 1.71.104zm-26.15 11.382l-.001-5.955c0-.257 0-.515.01-.772.008-.346-.201-.45-.51-.43-1.157.082-2.338.053-3.466.275-2.763.547-3.88 2.49-3.066 5.088.302.968.973 1.538 1.935 1.8 1.685.454 3.379.31 5.097-.006zm76.136 5.038h-9.573c.336-9.283.412-18.537-.016-27.819.888-.049 1.742-.08 2.592-.144 2.87-.22 5.735-.509 8.607-.663 3.099-.167 6.209-.276 9.241.607 3.803 1.106 5.52 3.406 5.936 6.98.237 2.015.123 4.07.158 6.107.053 3.626.082 7.254.148 10.876.021 1.108.134 2.213.199 3.32.013.23 0 .464 0 .73h-9.541a4.004 4.004 0 01-.045-.489c.1-4.078.245-8.157.291-12.236.025-2.155-.03-4.32-.191-6.47-.206-2.734-1.404-3.837-4.216-3.894-1.126-.022-2.258.267-3.386.418-.35.047-.444.259-.444.594.016 6.081.011 12.162.039 18.243 0 1.087.131 2.173.199 3.26.012.164.002.344.002.58zm23.761-21.097c-.092-1.684-.19-3.277-.261-4.875-.058-1.283-.065-1.378 1.263-1.658 2.027-.424 4.077-.82 6.139-1.014 2.477-.238 4.977-.223 7.45.192 2.371.399 4.552 1.16 6.036 3.15a8.076 8.076 0 011.606 4.49c.122 2.488.13 4.986.066 7.477-.104 4.059-.315 8.116.094 12.17l.123 1.2c-.614 0-1.162-.023-1.704 0-2.691.136-5.38.304-8.072.428-3.199.148-6.399.381-9.567-.42-3.492-.882-5.601-3.187-6.019-6.67-.212-1.755-.199-3.477.62-5.113.951-1.895 2.597-3.014 4.549-3.758 2.523-.96 5.174-1.264 7.86-1.342.9-.026 1.799-.042 2.698-.046.276 0 .513-.023.475-.367-.123-1.077-.123-2.19-.418-3.22-.468-1.63-1.822-2.439-3.713-2.588-3.019-.238-5.832.443-8.547 1.649-.186.091-.37.176-.678.315zm13.17 16.053a.711.711 0 00.063-.166c0-2.175-.013-4.35-.01-6.525 0-.38-.212-.484-.545-.462-1.115.078-2.248.067-3.341.26-2.415.431-3.504 1.769-3.386 3.975.094 1.757.954 2.774 2.655 3.058 1.516.253 3.068.205 4.564-.14zm-50.665-.996c.123 1.863.246 3.678.377 5.494.02.29.023.543-.38.615-3.544.623-7.09.974-10.593-.177-2.418-.795-3.917-2.48-4.501-4.86a14.52 14.52 0 01-.397-3.403c0-4.281.058-8.562.122-12.843.009-.57-.15-.772-.75-.742-.828.044-1.661.012-2.563.012 0-1.498-.016-2.92.026-4.34 0-.133.358-.32.576-.37 1.686-.386 3.234-1.004 4.372-2.335 1.138-1.33 1.636-2.905 1.98-4.55.123-.579.213-1.163.323-1.783h5.315l-.332 7.46h.783c1.514 0 3.026.01 4.538 0 .39 0 .547.103.544.5-.016 1.645-.016 3.29 0 4.936 0 .405-.177.497-.554.494-1.574-.014-3.148.011-4.721-.014-.507-.007-.664.152-.661.646.02 3.686-.022 7.372.038 11.058.016 1.013.236 2.042.504 3.028.221.81.891 1.292 1.747 1.512 1.259.322 2.26.257 4.207-.338zm64.656-20.972c0 .567.017 1.136-.01 1.703-.008.156-.145.307-.222.46-.065-.142-.182-.285-.185-.43-.019-.731-.008-1.464-.001-2.195 0-.096.018-.194.027-.312.457-.183.723-.073.869.396.191.62.429 1.225.646 1.838l.177.016c.234-.634.463-1.269.703-1.902.176-.466.182-.464.829-.34 0 .872.007 1.758-.01 2.644 0 .098-.142.193-.219.289-.065-.102-.183-.202-.187-.306-.017-.622-.009-1.246-.009-1.869l-.163-.03c-.236.616-.463 1.237-.718 1.847-.058.14-.215.238-.327.357-.099-.11-.238-.206-.292-.334-.253-.615-.484-1.24-.723-1.859l-.185.026zm-1.234-.02a3.1 3.1 0 01-.432-.209c-.111-.078-.182-.25-.297-.277-.368-.084-.84-.238-1.022.22-.197.489.27.566.625.665.238.058.472.128.702.21.614.246.801.986.267 1.328-.362.238-.912.268-1.372.249-.46-.02-.776-.318-.858-.964.229.13.368.202.5.284.212.132.405.34.634.389.36.076.793.073.908-.377.123-.495-.31-.57-.664-.672a6.26 6.26 0 01-.763-.217c-.613-.265-.67-.95-.134-1.336.71-.502 1.691-.196 1.906.706z" fill="#7D3F98"/></svg>
